X:1
T: Fairlie Castle
C:
R:Strathspey
Q: 128
K:Bb
M:4/4
L:1/16
|:d2|BB3 G3B FD3 D3F|BB3 G3B c4 c3d|BB3 G3B FD3 D3F|((3G2A2B2) ((3A2B2c2) B6d2|
BB3 G3B FD3 D3F|BB3 G3B c4 c3d|BB3 G3B FD3 D3F|((3G2A2B2) ((3A2B2c2) B6F2|
B3 d3 Bf B3B3bB|B3B d3B c4 c3d|BB3 d3B fB3 db3|((3g2f2e2) ((3d2e2c2) B6F2|
B3 d3 Bf B3B3bB|B3B d3B c4 c3d|BB3 d3B fB3 db3|((3g2f2e2) ((3d2e2c2) B6:|
